X:4820
T:Engelska
S:Hans Ole
R:Engelska
O:Denmark
M:2/4
L:1/8
K:A
A2 CE | A2 cB | A2e2 | c2a2 | \
Bb ge | ca fd | ce dB | A4 ::
A2 AB | c2 f2 | cd fe | d2 B2 | \
ce dB | Ac ea | ge fg | a2 a2 :|
